pype/resources/ftrack/action_icons/CreateProjectFolders.svg

<?xml version="1.0" ?>
<svg enable-background="new 0 0 512 512" id="Layer_1" version="1.1" viewBox="0 0 512 512" xml:space="preserve" xmlns="http://www.w3.org/2000/svg" xmlns:xlink="http://www.w3.org/1999/xlink">
  <g>
    <g>
      <linearGradient gradientUnits="userSpaceOnUse" id="SVGID_1_" x1="-0.0000027" x2="512" y1="256" y2="256">
        <stop offset="0" style="stop-color:#935BA2"/>
        <stop offset="1" style="stop-color:#6E2B7B"/>
      </linearGradient><circle cx="256" cy="256" fill="url(#SVGID_1_)" r="256"/>
      <linearGradient gradientUnits="userSpaceOnUse" id="SVGID_2_" x1="42.6666641" x2="469.3333435" y1="256.0005188" y2="256.0005188">
        <stop offset="0" style="stop-color:#6E2B7B"/>
        <stop offset="1" style="stop-color:#935BA2"/>
      </linearGradient>
      <path d="M256,469.3338623c-117.6314697,0-213.3333435-95.7023926-213.3333435-213.3333435    c0-117.6314545,95.7018661-213.333313,213.3333435-213.333313c117.6357422,0,213.3333435,95.7018661,213.3333435,213.333313    C469.3333435,373.6314697,373.6357422,469.3338623,256,469.3338623z" fill="url(#SVGID_2_)"/>
    </g>
    <g>
      <path d="M144,301.7520142V384h120h120v-82.2479858v-81.3093414H144V301.7520142z M237.8101349,314.8128052
        m -40, -10
        a 45,45 0 1,1 140,0
        a 45,45 0 1,1 -140,0
        m 125, 0
        a 15,15 0 1,0 -115,0
        a 15,15 0 1,0 115,0
        m -95, 10
        v-20 h25 v-25 h20 v25 h25 v20 h-25 v25 h-20 v-25 h-25
        " opacity="0.3"/>
      <polygon opacity="0.3" points="259.8346558,176.3594666 229,144 144,144 144,210.4426727 384,210.4426727 384,176.3594666   "/>
    </g>
    <g>
      <path d="
        M136,293.7520142V376
        h120h120
        v-82.2479858
        v-81.3093414
        H136V293.7520142z
        m 48, 0
        a 45,45 0 1,1 150,0
        a 45,45 0 1,1 -150,0
        m 135, 0
        a 15,15 0 1,0 -120,0
        a 15,15 0 1,0 120,0
        m -95, 10
        v-20 h25 v-25 h20 v25 h25 v20 h-25 v25 h-20 v-25 h-25

        " fill="#FFFFFF"/>
      <polygon fill="#FFFFFF" points="251.834671,168.3594666 221,136 136,136 136,202.4426727 376,202.4426727 376,168.3594666   "/>
    </g>
  </g>
</svg>
<!-- A 45 45, 1, 1, 1, 175 265 Z -->
<!-- v-10 h25 v-25 h10 v25 h25 v10 h-25 v25 h-10 v-25 h-25 -->
<!-- A 45 45, 1, 1, 1, 125 275 -->

<?xml version="1.0" encoding="UTF-8" standalone="no"?>
<!DOCTYPE svg PUBLIC "-//W3C//DTD SVG 1.1//EN" "http://www.w3.org/Graphics/SVG/1.1/DTD/svg11.dtd">
<svg width="100%" height="100%" viewBox="0 0 512 512" version="1.1" xmlns="http://www.w3.org/2000/svg" xmlns:xlink="http://www.w3.org/1999/xlink" xml:space="preserve" xmlns:serif="http://www.serif.com/" style="fill-rule:evenodd;clip-rule:evenodd;stroke-linejoin:round;stroke-miterlimit:2;">
    <g>
        <g>
            <circle cx="256" cy="256" r="256" style="fill:rgb(133,73,157);"/>
            <path d="M256,469.334C138.369,469.334 42.667,373.631 42.667,256.001C42.667,138.369 138.369,42.667 256,42.667C373.636,42.667 469.333,138.369 469.333,256.001C469.333,373.631 373.636,469.334 256,469.334Z" style="fill:rgb(133,73,157);fill-rule:nonzero;"/>
        </g>
        <g>
            <path d="M144,220.443L144,384L384,384L384,220.443L144,220.443ZM197.81,304.813C197.81,266.412 229.409,234.813 267.81,234.813C306.211,234.813 337.81,266.412 337.81,304.813C337.81,343.214 306.211,374.813 267.81,374.813C229.409,374.813 197.81,343.214 197.81,304.813M322.81,304.813C322.81,273.269 296.854,247.313 265.31,247.313C233.767,247.313 207.81,273.269 207.81,304.813C207.81,336.356 233.767,362.313 265.31,362.313C296.854,362.313 322.81,336.356 322.81,304.813M227.81,314.813L227.81,294.813L252.81,294.813L252.81,269.813L272.81,269.813L272.81,294.813L297.81,294.813L297.81,314.813L272.81,314.813L272.81,339.813L252.81,339.813L252.81,314.813L227.81,314.813" style="fill-opacity:0.3;fill-rule:nonzero;"/>
            <path d="M259.835,176.359L229,144L144,144L144,210.443L384,210.443L384,176.359L259.835,176.359Z" style="fill-opacity:0.3;fill-rule:nonzero;"/>
        </g>
        <g transform="matrix(1,0,0,1,1,2)">
            <path d="M136,212.443L136,376L376,376L376,212.443L136,212.443ZM184,293.752C184,252.608 217.856,218.752 259,218.752C300.144,218.752 334,252.608 334,293.752C334,334.896 300.144,368.752 259,368.752C217.856,368.752 184,334.896 184,293.752M319,293.752C319,260.837 291.915,233.752 259,233.752C226.085,233.752 199,260.837 199,293.752C199,326.667 226.085,353.752 259,353.752C291.915,353.752 319,326.667 319,293.752M224,303.752L224,283.752L249,283.752L249,258.752L269,258.752L269,283.752L294,283.752L294,303.752L269,303.752L269,328.752L249,328.752L249,303.752L224,303.752" style="fill:white;fill-rule:nonzero;"/>
            <path d="M251.835,168.359L221,136L136,136L136,202.443L376,202.443L376,168.359L251.835,168.359Z" style="fill:white;fill-rule:nonzero;"/>
        </g>
    </g>
</svg>
